X: 33085
T: Primrose Lasses, The
R: reel
M: 4/4
K: Gmajor
|:B3A G3E|DEGA BAA2|B3A G3E|DEGA BGG2:|
Bdgd edgd|Bdgd BAA2|Bdgd edgd|B2Ac BGG2|
Bdgd edgd|Bdgd BAA2|Bdef g2ge|dBAc BGG2||

